X:119
T:Magic Slipper, The
R:polka
H:Often followed by "The Little Diamond" #76
D:James Morrison and Tom Carmody 1936
Z:id:hn-polka-119
M:2/4
L:1/8
K:D
Af Af | ed A2 | B/c/d ef | ag g2 | Bg Bg | gf A>f | ed cB | Aa a2 :|
|: DF/A/ d>d | cB B/A/B | E/F/G/A/ B>c | BA A/G/A |
DF/A/ d>d | cB B/A/B | g/f/e Bc | ed d2 :|

